X:7019
T:Garryowen
R:Jig
C:Trad.
O:Ireland
Z:Paul Hardy's Session Tunebook 2022 (see www.paulhardy.net). Creative Commons cc by-nc-sa licenced.
M:6/8
L:1/8
Q:3/8=95
K:Dmix
g/f/|"G"edc BAG|B>cB Bgf|edc BAG|"D"A>BA Agf|
"G"edc BAG|B>cB B2c|def gdB|"D"A>BA A2:|
|:B/c/|"G"d2B d2B|d2B dgf|"C"e2c e2c|e2c e2f|
"G"g2a b2a|gfe dcB|def gdB|1"D"A>BA A2:|2"D"A>BA "G"G2|]

